assets/icons/qvision/duo.svg

<svg xmlns="http://www.w3.org/2000/svg" height="24" viewBox="0 0 24 24" width="24"><path d="M0 0h24v24H0z" fill="none"/><path d="M20 2h-8C6.38 2 2 6.66 2 12.28 2 17.5 6.49 22 11.72 22 17.39 22 22 17.62 22 12V4c0-1.1-.9-2-2-2zm-3 13l-3-2v2H7V9h7v2l3-2v6z"/></svg>

<svg width="24" height="24" viewBox="0 0 24 24" fill="none" xmlns="http://www.w3.org/2000/svg">
<g clip-path="url(#clip0_147_1824)">
<path d="M20 2H12C6.38 2 2 6.66 2 12.28C2 17.5 6.49 22 11.72 22C17.39 22 22 17.62 22 12V4C22 2.9 21.1 2 20 2ZM17 15L14 13V15H7V9H14V11L17 9V15Z" fill="#323232"/>
</g>
<defs>
<clipPath id="clip0_147_1824">
<rect width="24" height="24" fill="white"/>
</clipPath>
</defs>
</svg>
